X: 1599
T: Jim Seymour's Set Tune
B: australian traditional tunes wiki
M:2/4
L:1/16
R: Set Tune
Q: 1/4=100
K:D
V:1 
A2F2|D3D F2A2|d3e d2A2|B3A B2d2|e3d e2f2|
D3D F2A2|d3c (3BcBA2|B3A B2c2|d4F2BA||
|:D3D F2A2|d3D F2A2|d2F2 FEDE|F3E E2F2|
D3D F2A2|d3A f3d|edcB ABdf|1e4 d2AF:|2e4 d2ag||
|:f2a2 d3e|e2g2 a2ge|g2b2 e3f|g2a2 b2ag|
f2a2 e3f|d3e f3e|edcB ABdf|1e4d4:|2e4d2AF||
% abcbook-tune_id 6342d53a93d77079f8e170dd


% abcbook-boost 0
% abcbook-tablature 
% abcbook-transpose 
% abcbook-lastupdated 1665324373235
% abcbook-soundfonts 
% abcbook-repeats 1
% NFF Book 2007

